!!!OTL: Die Rabenmutter Es trieb ein Hirtlein in den Wald
!!!ARE: Europa, Osteuropa, UdSSR, Estland
!!!YOR: 5, S. 267
!!    ????
!!!SCT: Q0114F
!!!YEM: Copyright 1995, estate of Helmut Schaffrath.
**kern
*ICvox
*Ivox
!! Irregular meter.
*MX
*k[f#]
*G:
{8g
8g
8b
=1
4dd
4ee
4dd
4b
=2
4dd
8r}
{8g
8g
8b
=3
4dd
4ee
4dd
4b
=4
4dd
8r}
{8cc
8b
8cc
=5
4dd
8b
8b
4a
4a
=6
4g
8r}
{8cc
8b
8cc
=7
4dd
8b
8b
4a
4a
=8
4g
8r}
==
!!!AGN: Ballade, Kinds - Mord, Strafe
!!!ONB: ESAC (Essen Associative Code) Database: BALLADE
!!!AMT: irregular
!!!AIN: vox
!!!EED: Helmut Schaffrath
!!!EEV: 1.0
*-
